X: 91
T: Missa Nunca fu\'e pena mayor / Sanctus
N: Derived from Rue1020d-Missa_Nunca_fue_pena_mayor-Sanctus.krn
C: Pierre de la Rue
%%abc-version 2.0
%%abcx-abcm2ps-target-version 5.9.1 (29 Sep 2008)
%%abc-creator hum2abc beta
%%abcx-conversion-date 2019/02/17 08:01:13
%%abc-edited-by Jesse Rodin
%%abc-edited-by Jesse Rodin; Chris Gage 10-25-2012
%%abcx-initial-encoding-date 2012/11/10/
%%humdrum-veritas 632724750
%%humdrum-veritas-data 2884314139
%%linebreak <none>
%%barnumbers 0
L: 1/4
M: 3/1
Q: 1/2=120
%%staves [1 2 3 4]
V: 1 clef=treble
V: 2 clef=treble-8
V: 3 clef=treble-8
V: 4 clef=bass
K: C
[V:1] z12 | 
[V:2] E4G8 | 
[V:3] z12 | 
[V:4] z12 | 
[V:1] E4G8 | 
[V:2] A4B4B2c2- | 
[V:3] z12 | 
[V:4] z12 | 
[V:1] A4B8 | 
[V:2] cBA4^G^F^G4 | 
[V:3] e12- | 
[V:4] z12 | 
[V:1] c4z2c4A2- | 
[V:2] A4c3de2f2- | 
[V:3] e8c4 | 
[V:4] A,12 | 
[V:1] A2A2B4B2d2- | 
[V:2] fedcB2G2d2f2- | 
[V:3] d8d4 | 
[V:4] F,4G,4D,4- | 
[V:1] d2d2c2A4c2- | 
[V:2] f2f2e4c3d | 
[V:3] A8e4- | 
[V:4] D,4A,8 | 
[V:1] c2B2G2_B2A2F2 | 
[V:2] efg3fdef4- | 
[V:3] e4d8 | 
[V:4] A,2G,4G,2F,2D,2 | 
[V:1] A3GE8 | 
[V:2] f4z4z4 | 
[V:3] c2A2c8 | 
[V:4] F,3G,A,8 | 
[V:1] z2E2G3AB2c2- | 
[V:2] z2c4BAG2A2 | 
[V:3] c3de8 | 
[V:4] z12 | 
[V:1] c2BAG2A3GFE | 
[V:2] c3de2f3edc | 
[V:3] z12 | 
[V:4] z4z4F,4 | 
[V:1] D2E4DCD4 | 
[V:2] B2c2G2c4B2 | 
[V:3] z12 | 
[V:4] G,12 | 
[V:1] C4z2C2F4- | 
[V:2] c4z4z4 | 
[V:3] z4z4c4 | 
[V:4] A,12 | 
[V:1] F2F2G8 | 
[V:2] z4G8 | 
[V:3] d12 | 
[V:4] _B,12 | 
[V:1] A4c4B4 | 
[V:2] c6BAG4 | 
[V:3] e12 | 
[V:4] A,8z4 | 
[V:1] z2A4A4A2 | 
[V:2] z2c4c2c4 | 
[V:3] f12 | 
[V:4] F,8F,4 | 
[V:1] B2G4G4G2 | 
[V:2] B8B4 | 
[V:3] e12 | 
[V:4] G,3E,E,8 | 
[V:1] A2c3BA2G4 | 
[V:2] A4G2F2G4 | 
[V:3] c12 | 
[V:4] F,4E,2F,2E,4 | 
[V:1] F4F2D4D2 | 
[V:2] A4z4z4 | 
[V:3] d8B4 | 
[V:4] D,3E,F,2G,3F,E,D, | 
[V:1] E3FG2A4^G2 | 
[V:2] z12 | 
[V:3] c4B2c2B4 | 
[V:4] C,3D,E,2C,2D,2E,2 | 
[V:1] A6GFE4 | 
[V:2] z12 | 
[V:3] A12- | 
[V:4] A,,2F,3E,D,4^C,2 | 
[V:1] z2D2E2F2G4 | 
[V:2] f4e2d3^c/B/^c2 | 
[V:3] A8G4 | 
[V:4] D,4C,2D,2E,4 | 
[V:1] F2D2z2A2B2c2 | 
[V:2] z2d2e2f2g4 | 
[V:3] A8z4 | 
[V:4] D,4z4z4 | 
[V:1] d4c2A2z2d2- | 
[V:2] f2d2f2e2g2f2 | 
[V:3] z12 | 
[V:4] D,E,F,G,A,3G,/F,/E,2D,2 | 
[V:1] d2c2d2e2f4 | 
[V:2] e4d2c2A4 | 
[V:3] z12 | 
[V:4] z2A,,2B,,2C,2D,4 | 
[V:1] e6dcB4 | 
[V:2] A2c3BA4^G2 | 
[V:3] c8d4 | 
[V:4] A,,8z4 | 
[V:1] A2c3BA4^G2 | 
[V:2] A8z4 | 
[V:3] c8B4 | 
[V:4] z4z2C,2D,2E,2 | 
[V:1] A8A4 | 
[V:2] c8d4 | 
[V:3] A8A4 | 
[V:4] F,8F,4 | 
[V:1] G4G2c4d2 | 
[V:2] e8z4 | 
[V:3] B2G2B2c2A4 | 
[V:4] E,8F,4 | 
[V:1] e3dcBA4GF | 
[V:2] E3FG2A2F4 | 
[V:3] G4G2c4d2 | 
[V:4] E,2C,2E,2F,2D,4 | 
[V:1] A2G2C2c4BA | 
[V:2] E4z4c3d | 
[V:3] e12- | 
[V:4] C,4z2A,4G,F, | 
[V:1] c2B2G2A2E2A2- | 
[V:2] efg4c2z4 | 
[V:3] e12- | 
[V:4] A,2G,2C,2C3B,A,G, | 
[V:1] A2A4G2G4 | 
[V:2] z2c4B2G2B2- | 
[V:3] e12 | 
[V:4] A,4A,2E,2z2E,2 | 
[V:1] z2G2B8 | 
[V:2] B2B3Gg4g2 | 
[V:3] z2e4d4d2 | 
[V:4] G,8G,4 | 
[V:1] c3de2f3edc | 
[V:2] e3AA4f4 | 
[V:3] c8z4 | 
[V:4] A,4A,2F,4F,2 | 
[V:1] B4B3AA4 | 
[V:2] d2e4e2c2d2- | 
[V:3] g8f4- | 
[V:4] G,2E,4E,2F,2D,2- | 
[V:1] A3GG4z2c2 | 
[V:2] d2d2B2cdefg2 | 
[V:3] f4e8 | 
[V:4] D,2D,2E,2C,3D,E,F, | 
[V:1] B2cd2cc4B2 | 
[V:2] G2g2z2g4g2 | 
[V:3] d4B2c2d4 | 
[V:4] G,4z4G,4 | 
[V:1] c2BA2GG2zG2F | 
[V:2] e3dc2e3cd2 | 
[V:3] c4A2B2cBA2 | 
[V:4] A,2G,F,2E,E,2z2D,2 | 
[V:1] G2A2G2E2z2F2- | 
[V:2] BGd2B2c2A4 | 
[V:3] zG2FG2A4F2 | 
[V:4] E,2D,2E,2C,2D,4 | 
[V:1] F2D2!fermata!D8 | 
[V:2] A4!fermata!_B8 | 
[V:3] !fermata!F12 | 
[V:4] z2D,4_B,,2!fermata!B,,4 | 
[V:1] E12- | 
[V:2] G4G2A3Bc2- | 
[V:3] E12- | 
[V:4] z2C,4A,,2A,,4 | 
[V:1] E12 ||  
[V:2] c2B2G3AB4 ||  
[V:3] E12 ||  
[V:4] E,12 ||  
[V:1]  [K:C] [K:clef=treble][M:2/1]z8 | 
[V:2]  [K:C] [K:clef=treble-8][M:2/1]e4e4 | 
[V:3]  [K:C] [K:clef=treble-8][M:2/1]z8 | 
[V:4]  [K:C] [K:clef=bass][M:2/1]z8 | 
[V:1] z8 | 
[V:2] d4e4- | 
[V:3] z8 | 
[V:4] z8 | 
[V:1] z8 | 
[V:2] e2d2c4 | 
[V:3] z8 | 
[V:4] A,4A,4 | 
[V:1] z8 | 
[V:2] B4z2e2- | 
[V:3] z8 | 
[V:4] G,4A,4- | 
[V:1] z8 | 
[V:2] e2e4d2 | 
[V:3] z8 | 
[V:4] A,2G,2F,4 | 
[V:1] z8 | 
[V:2] e6d2 | 
[V:3] z8 | 
[V:4] E,4z2A,2- | 
[V:1] z8 | 
[V:2] c4B4 | 
[V:3] z8 | 
[V:4] A,2A,4^G,2 | 
[V:1] c4c4 | 
[V:2] z8 | 
[V:3] z8 | 
[V:4] A,8 | 
[V:1] B4c4- | 
[V:2] z4z2e2- | 
[V:3] z8 | 
[V:4] G,4A,4- | 
[V:1] c2B2A4 | 
[V:2] e2e4d2 | 
[V:3] z8 | 
[V:4] A,2G,2F,4 | 
[V:1] G4z2A2- | 
[V:2] e6d2 | 
[V:3] z8 | 
[V:4] E,4z4 | 
[V:1] A2A4^G2 | 
[V:2] c4B4 | 
[V:3] z8 | 
[V:4] z8 | 
[V:1] A6G2 | 
[V:2] A8- | 
[V:3] z8 | 
[V:4] z4z2D,2- | 
[V:1] F4E4 | 
[V:2] A8 | 
[V:3] z8 | 
[V:4] D,2D,4^C,2 | 
[V:1] D2F4E2 | 
[V:2] z2A4A2- | 
[V:3] z8 | 
[V:4] D,6C,2 | 
[V:1] D4C4 | 
[V:2] A2G2A2c2- | 
[V:3] z8 | 
[V:4] B,,4A,,4 | 
[V:1] G4A2c2- | 
[V:2] c2B2A4 | 
[V:3] z8 | 
[V:4] z8 | 
[V:1] c2B2A2c2- | 
[V:2] G4z4 | 
[V:3] z8 | 
[V:4] E,4F,2A,2- | 
[V:1] c2B2A4 | 
[V:2] z4A4 | 
[V:3] z8 | 
[V:4] A,2G,2F,4 | 
[V:1] z2G3AB2- | 
[V:2] B2c2B2d2- | 
[V:3] z8 | 
[V:4] E,4z4 | 
[V:1] B2c2d3c | 
[V:2] d2c2B2d2- | 
[V:3] z8 | 
[V:4] z8 | 
[V:1] BAA4^G2 | 
[V:2] d2c2B4 | 
[V:3] z8 | 
[V:4] z4E,4 | 
[V:1] A3GFEE2- | 
[V:2] A4z4 | 
[V:3] z8 | 
[V:4] F,2A,4G,2 | 
[V:1] E2D2E4 | 
[V:2] A4B4 | 
[V:3] z8 | 
[V:4] F,4E,4- | 
[V:1] z8 | 
[V:2] B2c3de2 | 
[V:3] z8 | 
[V:4] E,4E,4 | 
[V:1] z4A4 | 
[V:2] c2d3cBA | 
[V:3] z8 | 
[V:4] F,8 | 
[V:1] B4B2c2- | 
[V:2] G4e4- | 
[V:3] z8 | 
[V:4] E,4z4 | 
[V:1] cde2c2d2- | 
[V:2] e4f4- | 
[V:3] z8 | 
[V:4] z8 | 
[V:1] dcBAG4 | 
[V:2] f4e4- | 
[V:3] z8 | 
[V:4] D,4E,4 | 
[V:1] z8 | 
[V:2] e2dcc2f2- | 
[V:3] z8 | 
[V:4] E,2F,3G,A,2 | 
[V:1] d4d4 | 
[V:2] fedcB3A | 
[V:3] z8 | 
[V:4] F,2G,3F,E,D, | 
[V:1] e4e2d2- | 
[V:2] c4g4 | 
[V:3] z8 | 
[V:4] C,4z4 | 
[V:1] d2B2c4 | 
[V:2] g4a4 | 
[V:3] z8 | 
[V:4] z8 | 
[V:1] c2B4AG | 
[V:2] a2g4e2 | 
[V:3] z8 | 
[V:4] z8 | 
[V:1] A4A2G2- | 
[V:2] f4f2e2- | 
[V:3] z8 | 
[V:4] z8 | 
[V:1] G2c3BB2 | 
[V:2] e2c2d4 | 
[V:3] z8 | 
[V:4] G,8 | 
[V:1] c2A2c2B2 | 
[V:2] c4z4 | 
[V:3] z8 | 
[V:4] A,4A,2G,2- | 
[V:1] G2B2A4 | 
[V:2] d8 | 
[V:3] z8 | 
[V:4] G,2E,2F,4 | 
[V:1] G2E2G2F2 | 
[V:2] e4e2d2- | 
[V:3] z8 | 
[V:4] E,4z4 | 
[V:1] D2F2E4 | 
[V:2] d2B2c4 | 
[V:3] z8 | 
[V:4] z8 | 
[V:1] D4z4 | 
[V:2] d4A4- | 
[V:3] z8 | 
[V:4] D,8 | 
[V:1] z4G4- | 
[V:2] A4c4 | 
[V:3] z8 | 
[V:4] F,4E,4 | 
[V:1] G4B4 | 
[V:2] B4d4- | 
[V:3] z8 | 
[V:4] G,8 | 
[V:1] A4c4- | 
[V:2] d4c4- | 
[V:3] z8 | 
[V:4] F,8 | 
[V:1] c4B4- | 
[V:2] c4e4 | 
[V:3] z8 | 
[V:4] A,4G,4 | 
[V:1] B4d4 | 
[V:2] d4f4- | 
[V:3] z8 | 
[V:4] B,8 | 
[V:1] c4e4- | 
[V:2] f4e4- | 
[V:3] z8 | 
[V:4] A,8 | 
[V:1] e4d4- | 
[V:2] e4g4- | 
[V:3] z8 | 
[V:4] C4B,4 | 
[V:1] d2cBA4 | 
[V:2] g4^f4 | 
[V:3] z8 | 
[V:4] D8 | 
[V:1] B4z2d2- | 
[V:2] g6fe | 
[V:3] z8 | 
[V:4] G,8 | 
[V:1] d2B2B4 | 
[V:2] d2g3fed | 
[V:3] z8 | 
[V:4] z4G,4 | 
[V:1] c2A3GA2 | 
[V:2] c4c2d2- | 
[V:3] z8 | 
[V:4] A,4F,4 | 
[V:1] B4G4 | 
[V:2] d2e4e2 | 
[V:3] z8 | 
[V:4] G,2E,3D,E,2 | 
[V:1] A2F3EF2 | 
[V:2] c2A2d3B | 
[V:3] z8 | 
[V:4] F,4D,4 | 
[V:1] G4E4 | 
[V:2] c2c3BAG | 
[V:3] z8 | 
[V:4] E,2C,4C,2 | 
[V:1] F2D3CD2 | 
[V:2] F8 | 
[V:3] z8 | 
[V:4] D,4B,,4 | 
[V:1] E3DE2F2- | 
[V:2] E4z4 | 
[V:3] z8 | 
[V:4] C,D,E,F,G,2A,2- | 
[V:1] F2E4D2 | 
[V:2] z8 | 
[V:3] z8 | 
[V:4] A,G,G,2F,3E, | 
[V:1] E3/D/EFG2A2- | 
[V:2] c8 | 
[V:3] z8 | 
[V:4] C,3D,E,C,F,2- | 
[V:1] AGFEF4 | 
[V:2] d8 | 
[V:3] z8 | 
[V:4] F,E,D,C,_B,,3A,, | 
[V:1] E8- | 
[V:2] (3G4A4G4 | 
[V:3] z8 | 
[V:4] C,8- | 
[V:1] E8 ||  
[V:2] c8 ||  
[V:3] z8 ||  
[V:4] C,8 ||  
[V:1]  [K:C] [K:clef=treble][M:2/1]E8 | 
[V:2]  [K:C] [K:clef=treble-8][M:2/1]G8 | 
[V:3]  [K:C] [K:clef=treble-8][M:2/1]c8- | 
[V:4]  [K:C] [K:clef=bass][M:2/1]C,8 | 
[V:1] E4G4 | 
[V:2] G4E4 | 
[V:3] c4G4 | 
[V:4] C,4E,4 | 
[V:1] F8 | 
[V:2] F8 | 
[V:3] A4B4 | 
[V:4] D,8 | 
[V:1] E6F2 | 
[V:2] G6AB | 
[V:3] c6d2 | 
[V:4] C,4E,4- | 
[V:1] G8 | 
[V:2] c2B4AG | 
[V:3] e4e4- | 
[V:4] E,4G,4 | 
[V:1] z8 | 
[V:2] A8 | 
[V:3] e4d4 | 
[V:4] F,8 | 
[V:1] z4G4- | 
[V:2] B6AG | 
[V:3] e8- | 
[V:4] E,8- | 
[V:1] G4B4 | 
[V:2] G8 | 
[V:3] e8- | 
[V:4] E,8 | 
[V:1] A8 | 
[V:2] c8 | 
[V:3] e8- | 
[V:4] A,8 | 
[V:1] G4B4- | 
[V:2] B6c2 | 
[V:3] e8 | 
[V:4] E,4G,4- | 
[V:1] B4d4 | 
[V:2] d8 | 
[V:3] z8 | 
[V:4] G,4B,4 | 
[V:1] c8 | 
[V:2] e4f4 | 
[V:3] z8 | 
[V:4] A,8 | 
[V:1] B6AG | 
[V:2] g8 | 
[V:3] e8- | 
[V:4] E,8 | 
[V:1] B4c4 | 
[V:2] g4c4 | 
[V:3] e8 | 
[V:4] G,4A,4 | 
[V:1] d6c2 | 
[V:2] f4g4 | 
[V:3] d8 | 
[V:4] B,4G,4- | 
[V:1] B8 | 
[V:2] d8 | 
[V:3] g8 | 
[V:4] G,4G,4 | 
[V:1] A8- | 
[V:2] d4A2d2- | 
[V:3] f8 | 
[V:4] D,8- | 
[V:1] A8 | 
[V:2] d2cBA4 | 
[V:3] f8 | 
[V:4] D,8 | 
[V:1] B6AG | 
[V:2] G8 | 
[V:3] g8 | 
[V:4] z8 | 
[V:1] G8 | 
[V:2] z2B4AG | 
[V:3] z8 | 
[V:4] G,4G,2E,2- | 
[V:1] z4E4- | 
[V:2] G8 | 
[V:3] c8- | 
[V:4] E,2D,C,C,4- | 
[V:1] E4E4 | 
[V:2] G2A4G2 | 
[V:3] c8- | 
[V:4] C,4C,4 | 
[V:1] F8 | 
[V:2] A8 | 
[V:3] c8- | 
[V:4] F,8 | 
[V:1] E8 | 
[V:2] G6A2 | 
[V:3] c8 | 
[V:4] C,8 | 
[V:1] D4G4- | 
[V:2] B4c2d2- | 
[V:3] d8- | 
[V:4] G,8- | 
[V:1] G4G4 | 
[V:2] dcBAB4 | 
[V:3] d8 | 
[V:4] G,8 | 
[V:1] E3FG2A2 | 
[V:2] c4G4 | 
[V:3] c8 | 
[V:4] C,4E,2F,2 | 
[V:1] B2c2d4 | 
[V:2] z8 | 
[V:3] B8- | 
[V:4] G,6F,E, | 
[V:1] z8 | 
[V:2] z2G2F2E2 | 
[V:3] B8- | 
[V:4] D,2E,2D,2G,2- | 
[V:1] d8 | 
[V:2] G4F4 | 
[V:3] B8 | 
[V:4] G,2F,E,D,4 | 
[V:1] e6dc | 
[V:2] E2c4BA | 
[V:3] c6d2 | 
[V:4] C,8 | 
[V:1] B2e4d2 | 
[V:2] G2c4B2 | 
[V:3] e8- | 
[V:4] z8 | 
[V:1] c4B4 | 
[V:2] A4G4 | 
[V:3] e8 | 
[V:4] z8 | 
[V:1] A8 | 
[V:2] z2c2A2c2- | 
[V:3] f8 | 
[V:4] F,8 | 
[V:1] G2E2G2A2 | 
[V:2] c2BAG2c2 | 
[V:3] e8 | 
[V:4] C,3D,E,2F,2 | 
[V:1] B4c4- | 
[V:2] BGg4^f2 | 
[V:3] d4c4 | 
[V:4] G,4A,4 | 
[V:1] c4B4 | 
[V:2] g8 | 
[V:3] d8 | 
[V:4] G,8 | 
[V:1] c8- | 
[V:2] e3fg2a2- | 
[V:3] c8- | 
[V:4] C,3D,E,2F,2- | 
[V:1] c8 | 
[V:2] a2g4^f2 | 
[V:3] c8 | 
[V:4] F,2G,2A,4 | 
[V:1] B4B2d2- | 
[V:2] g8 | 
[V:3] d8 | 
[V:4] G,8 | 
[V:1] d2c2B2A2 | 
[V:2] z4g4 | 
[V:3] B8 | 
[V:4] G,6F,2 | 
[V:1] G4G2c2- | 
[V:2] g3fe3d | 
[V:3] B4c4- | 
[V:4] E,2D,2C,4 | 
[V:1] c2B2A2G2 | 
[V:2] c4f4- | 
[V:3] c4c4 | 
[V:4] F,6E,2 | 
[V:1] F2E2D4- | 
[V:2] f4g4- | 
[V:3] z2d4c2 | 
[V:4] D,2C,2B,,2A,,2 | 
[V:1] D4G4- | 
[V:2] g2f2e2d2 | 
[V:3] B2A2G4 | 
[V:4] G,,8 | 
[V:1] G4^F4 | 
[V:2] d8 | 
[V:3] A8 | 
[V:4] D,8 | 
[V:1] G8 ||  
[V:2] d8 ||  
[V:3] G8 ||  
[V:4] G,,8 ||  
[V:1]  [K:C] [K:clef=treble][M:2/1]z8 | 
[V:2]  [K:C] [K:clef=treble-8][M:2/1]G4GABc | 
[V:3]  [K:C] [K:clef=treble-8][M:2/1]z8 | 
[V:4]  [K:C] [K:clef=bass][M:2/1]z8 | 
[V:1] G4GABc | 
[V:2] B2c4BA | 
[V:3] z8 | 
[V:4] z8 | 
[V:1] B2c4BA | 
[V:2] G2A2F4 | 
[V:3] z8 | 
[V:4] z8 | 
[V:1] G2A2F4 | 
[V:2] E2F3Dd2- | 
[V:3] z8 | 
[V:4] z8 | 
[V:1] E4z2d2- | 
[V:2] d2c2A2B2- | 
[V:3] z8 | 
[V:4] z8 | 
[V:1] d2c2A2B2- | 
[V:2] B2A4G2 | 
[V:3] z8 | 
[V:4] z8 | 
[V:1] B2A4G2 | 
[V:2] A3Bc4 | 
[V:3] z8 | 
[V:4] z8 | 
[V:1] A3Bc4- | 
[V:2] F4z2e2 | 
[V:3] z8 | 
[V:4] z8 | 
[V:1] c2BAG2C2 | 
[V:2] e4e4- | 
[V:3] z8 | 
[V:4] z8 | 
[V:1] z2c4BA | 
[V:2] e4f4- | 
[V:3] z8 | 
[V:4] z8 | 
[V:1] A4B4 | 
[V:2] f2edd2G2 | 
[V:3] z8 | 
[V:4] z8 | 
[V:1] A4z2A2 | 
[V:2] z2d2c2d2 | 
[V:3] z8 | 
[V:4] z8 | 
[V:1] B2A3GA2 | 
[V:2] G2d2cBcd | 
[V:3] z8 | 
[V:4] z8 | 
[V:1] B2A4d2- | 
[V:2] G2d3cBA | 
[V:3] z8 | 
[V:4] z8 | 
[V:1] dcBAG3F | 
[V:2] G2g3fed | 
[V:3] z8 | 
[V:4] z8 | 
[V:1] G2A4G2- | 
[V:2] c6B2 | 
[V:3] z8 | 
[V:4] z8 | 
[V:1] G2c4B2 | 
[V:2] c4d4 | 
[V:3] z8 | 
[V:4] z8 | 
[V:1] c8 | 
[V:2] c6BA | 
[V:3] z8 | 
[V:4] z8 | 
[V:1] [M:3/1]c8A4 | 
[V:2] [M:3/1]A4A2B2c2d2 | 
[V:3] [M:3/1]z12 | 
[V:4] [M:3/1]z12 | 
[V:1] B8G4 | 
[V:2] G4G2A2B2c2 | 
[V:3] z12 | 
[V:4] z12 | 
[V:1] A4A2B2c2d2 | 
[V:2] F4f8 | 
[V:3] z12 | 
[V:4] z12 | 
[V:1] G4G2A2B2c2 | 
[V:2] e8e4 | 
[V:3] z12 | 
[V:4] z12 | 
[V:1] F4F2G2A2B2 | 
[V:2] d4d2e2f2g2 | 
[V:3] z12 | 
[V:4] z12 | 
[V:1] c3Bc2d4^c2 | 
[V:2] e4e2f2g2a2 | 
[V:3] z12 | 
[V:4] z12 | 
[V:1] [M:2/1]d4z2d2- | 
[V:2] [M:2/1]d6G2 | 
[V:3] [M:2/1]z8 | 
[V:4] [M:2/1]z8 | 
[V:1] d2cBc2d2- | 
[V:2] G4z2g2- | 
[V:3] z8 | 
[V:4] z8 | 
[V:1] d2G2A2B2 | 
[V:2] g2fef2g2- | 
[V:3] z8 | 
[V:4] z8 | 
[V:1] G4z2G2- | 
[V:2] g2c2d2e2 | 
[V:3] z8 | 
[V:4] z8 | 
[V:1] GFE4DC | 
[V:2] c2g4fe | 
[V:3] z8 | 
[V:4] z8 | 
[V:1] D2E2C2c2- | 
[V:2] f2g3fed | 
[V:3] z8 | 
[V:4] z8 | 
[V:1] c2BAB2c2 | 
[V:2] c2g4fe | 
[V:3] z8 | 
[V:4] z8 | 
[V:1] d2G4c2- | 
[V:2] f2g2c4 | 
[V:3] z8 | 
[V:4] z8 | 
[V:1] c2BAB2c2 | 
[V:2] z2g4fe | 
[V:3] z8 | 
[V:4] z8 | 
[V:1] d2G2c3A | 
[V:2] f2g2e2c2 | 
[V:3] z8 | 
[V:4] z8 | 
[V:1] B2c2d2B2- | 
[V:2] g3ef2g2 | 
[V:3] z8 | 
[V:4] z8 | 
[V:1] BAG4^F2 | 
[V:2] G4A4 | 
[V:3] z8 | 
[V:4] z8 | 
[V:1] G8 |]  
[V:2] G8 |]  
[V:3] z8 |]  
[V:4] z8 |]  



